img/icon/copy-grey.svg

<svg width="20" height="20" viewBox="0 0 20 20" fill="none" xmlns="http://www.w3.org/2000/svg">
<path d="M19 3V2C19 1.448 18.552 1 18 1H17M19 13V14C19 14.552 18.552 15 18 15H17M5 3V2C5 1.448 5.448 1 6 1H7M11 1H13M19 9V7M13 19H2C1.448 19 1 18.552 1 18V7C1 6.448 1.448 6 2 6H13C13.552 6 14 6.448 14 7V18C14 18.552 13.552 19 13 19Z" stroke="#848E9F" stroke-width="1.5" stroke-linecap="round" stroke-linejoin="round"/>
</svg>

<svg width="20" height="20" fill="none" xmlns="http://www.w3.org/2000/svg"><path d="M19 3V2a1 1 0 0 0-1-1h-1m2 12v1a1 1 0 0 1-1 1h-1M5 3V2a1 1 0 0 1 1-1h1m4 0h2m6 8V7m-6 12H2a1 1 0 0 1-1-1V7a1 1 0 0 1 1-1h11a1 1 0 0 1 1 1v11a1 1 0 0 1-1 1z" stroke="#848E9F" stroke-width="1.5" stroke-linecap="round" stroke-linejoin="round"/></svg>
